!!!COM: Mozart, Wolfgang Amadeus
!!!CDT: 1756/01/27/-1791/12/05/
!!!CNT: German
!!!OTL: Piano Sonata No. 9 in D major
!!!SCT1: K<sup>1</sup> 311
!!!SCT2: K<sup>6</sup> 284c
!!!OMV: Mvmt. 2
!!!OMD: Andante con espressione
!!!ODT: 1777///
**kern	**kern	**dynam
*staff2	*staff1	*staff1/2
*clefF4	*clefG2	*clefG2
*k[f#]	*k[f#]	*k[f#]
*G:	*G:	*G:
*M2/4	*M2/4	*M2/4
*MM84	*MM84	*MM84
=1-	=1-	=1-
*^	*	*
2d	(4G	(8b/L	p
.	.	32dd/qq	.
.	.	16.cc/L	.
.	.	32b/JJk	.
.	8F#L	8aL	.
.	8GJ	8bJ)	.
=2	=2	=2	=2
2f#	8AL	(8ccL	.
.	8F#J	8ddJ	.
.	4G)	16ccLL	.
.	.	16b	.
.	.	16a	.
.	.	16gJJ)	.
*v	*v	*	*
=3	=3	=3
8E' 8e'L	8g' 8cc'L	f
8D' 8d'J	8g' 8b'J	.
8C' 8c'	8g'/ 8ee'/	.
16r	16r	.
16B	16g/ 16dd/	p
=4	=4	=4
*^	*	*
4d	(8F#L	(16ccLL	.
.	.	16a	.
.	8GJ)	16b	.
.	.	16gJJ)	.
4d	4D	(8g 8bL	.
.	.	8f#) 8aJ	.
=5	=5	=5	=5
2d	(4G	(8bL	.
.	.	(32dd/qq	.
.	.	16.ccL)	.
.	.	32bJJk	.
.	8F#L	8aL	.
.	8GJ	8bJ)	.
=6	=6	=6	=6
2d	8AL	(8ccL	.
.	8F#J	16eeL	.
.	.	16ddJJ	.
.	4G)	16ccLL	.
.	.	16b	.
.	.	16a	.
.	.	16gJJ)	.
*v	*v	*	*
=7	=7	=7
*	*^	*
8E' 8e'L	8g' 8cc'L	4ryy	f
8D' 8d'J	8g' 8b'J	.	.
8C' 8c'	(16eeLL	8g	.
.	16ff#	.	p
*clefG2	*	*	*
16r	16gg	8r	.
16e 16g	16ccJJ)	.	.
*	*v	*v	*
=8	=8	=8
*^	*	*
(8gL	4d	(8bL	.
8f#J)	.	8aTJ	.
*clefF4	*clefF4	*	*
.	.	32gq/LLL	.
.	.	32aq/JJJ	.
(16GLL	4G	4g)	.
16B	.	.	.
16d	.	.	.
16BJJ)	.	.	.
=9	=9	=9	=9
(16CLL	4C	4a	.
16E	.	.	.
16A	.	.	.
16EJJ)	.	.	.
(16DLL	4D	(16gLL	.
16c	.	16f#)	.
16A	.	(16f#	.
16cJJ)	.	16dJJ)	.
=10	=10	=10	=10
(16GLL	4G	4b	.
16B	.	.	.
16d	.	.	.
16BJJ)	.	.	.
(16ELL	4E	8gL	.
16G	.	.	.
16B	.	(8gTJ	.
16GJJ)	.	.	.
.	.	32f#q/LLL	.
.	.	32gq/JJJ	.
=11	=11	=11	=11
(16CLL	4C	8aL)	.
16E	.	.	.
16A	.	8aJ	.
16EJJ)	.	.	.
(16DLL	4D	(16gLL	.
16c	.	16f#)	.
16A	.	(16f#	.
16cJJ)	.	16dJJ)	.
*v	*v	*	*
=12:|!	=12:|!	=12:|!
4G 4B	4g	.
8BB 8F# 8AL	8d#L	.
8BB 8F# 8AJ	8d#J	.
=13	=13	=13
4E 4G	(16eLL	.
.	16f#	.
.	16g	.
.	16eJJ)	.
8AA\ 8E\ 8GL\	(16dnLL	.
.	16c#)	.
8AA\ 8E\ 8GJ\	(16c#	.
.	16AJJ)	.
=14	=14	=14
4D 4F#	4a	.
8BB 8BL	8d 8g# 8ddL	f
8BB 8BJ	8d 8g# 8ddJ	.
=15	=15	=15
4BB 4B	4d 4g# 4dd	.
8A 8eL	8cc# 8aaL	p
8A 8eJ	8cc# 8aaJ	.
=16	=16	=16
4A 4e	4cc# 4aa	.
4r	8r	.
.	(16.ff#tLL	f
.	32ggJJk	.
*clefG2	*	*
=17	=17	=17
(16dLL	8aaL)	.
16f#	.	.
16a	[8aaJ	.
16f#JJ)	.	.
(16dLL	16aaLL]	.
16f#	16aa	.
16a	16.aaT	.
16f#JJ)	.	.
.	32bbJJk	.
=18	=18	=18
(16dLL	(16aaLL	.
16e	16ggJ)	.
16b	8.ggJ	.
16eJJ)	.	.
(16dLL	.	.
16e	16gg'LL	.
16b	16ff#'	.
16eJJ)	16ee'JJ	.
=19	=19	=19
(16c#LL	(16eeLL	.
16e	16aaJ)	.
16a	([8aaJ	.
16eJJ)	.	.
(16BLL	16aaLL]	.
16d	32bbL	.
.	32aaJJJ)	.
16g	(32aaLLL	.
.	32gg	.
16dJJ)	32ff#	.
.	32ggJJJ)	.
*clefF4	*	*
=20	=20	=20
(16A#LL	(16ggLL	.
16c#	16ff#J)	.
16e	8.ff#J	.
16A#JJ)	.	.
(16BLL	.	.
.	(32ff#q/LLL	.
.	32ggq/JJJ	.
16f#	16aa'LL)	.
16An	16gg'	.
16dJJ)	16ff#'JJ	.
=21	=21	=21
(16G#LL	(16ff#LL	.
16B	16ee)	.
16d	16ee'	.
16BJJ)	16ee'JJ	.
(16G#LL	8eeL	.
16B	.	.
16d	8eeJ	.
16BJJ)	.	.
=22	=22	=22
.	(32gg#/qLLL	.
.	32aa/q	.
.	32bb/qJJJ	.
(16GnLL	[4aa)	.
16c#	.	.
16e	.	.
16GJJ)	.	.
(16F#LL	(16aaLL]	.
16d	32bbL	.
.	32aaJ	.
16B	16ggn)	.
16AJJ)	16ff#'JJ	.
=23	=23	=23
4.G 4.B	(16ff#LL	.
.	16ee	.
.	16dd#	.
.	16eeJJ	.
.	16ff#LL	.
.	16gg)	.
8G# 8e	(16b	.
.	16eeJJ)	.
=24	=24	=24
4A 4e	(16ddnLL	.
.	16cc#	.
.	16b	.
.	16aJJ	.
4r	16bLL	.
.	16cc#	.
.	16dd	.
.	16eeJJ)	.
*clefG2	*	*
=25	=25	=25
(16ddLL	(8ff#L	p
16a	.	.
.	32aa/qq	.
16dd	16.ggL	.
16aJJ	.	.
.	32ff#JJk	.
16cc#LL	8eeL	.
16a	.	.
16dd	8ff#J)	.
16aJJ	.	.
=26	=26	=26
16eeLL	(8ggL	.
16a	.	.
16cc#	8aa	.
16aJJ	.	.
16ddLL	8gg	.
16a	.	.
16dd)	8ff#J)	.
16aJJ	.	.
=27	=27	=27
(8d 8f#L	[2aaT	mf
32a/qq	.	.
16.e 16.gL	.	.
32d) 32f#JJk	.	.
(8c# 8eL	.	.
8d) 8f#J	.	.
=28	=28	=28
(8e 8gL	2aa]	.
8f# 8a	.	.
8e 8g	.	.
8d) 8f#J	.	.
.	32gg#q/LLL	.
.	32aaq/JJJ	.
=29	=29	=29
(8f# 8aL	8dd (8dddL	f
8e 8g 8a#J	8cc# 8ccc#J	.
8d) 8f#	8b 8bb)	.
8r	16r	.
.	16ff#	p
=30	=30	=30
(8d 8f#L	8b (8bbL	.
8cn 8d 8f#J	8a 8aaJ	.
8B) 8d	8g 8gg)	.
8r	16r	.
.	16dd	f
*clefF4	*	*
=31	=31	=31
8B (8dL	8g (8ggL	.
8A 8cn 8d#J)	8f# 8ff#J)	.
4G 4B 4e	(16eeLL	.
.	16bbJJ)	.
.	(32aaLLL	.
.	32gg	.
.	32ff#	.
.	32eeJJJ)	.
=32	=32	=32
*^	*	*
(8f#L	4A	(8ddL	.
8c#J)	.	8eeJ)	.
(8c#L	4D	(8ee#L	.
8dJ)	.	8ff#J)	.
*clefG2	*clefG2	*	*
*v	*v	*	*
=33	=33	=33
(8f# 8aL	(8dddL	p
8e 8f# 8a#J	8ccc#tJ	.
.	32bbq/LLL	.
.	32ccc#q/JJJ	.
8d) 8f# 8b	8bb)	.
8r	16r	.
.	16ff#	f
=34	=34	=34
(8d 8f#L	(8bbL	.
8cn 8d 8f#J	8aaTJ	.
.	32eeq/LLL	.
.	32ff#q/JJJ	.
8B) 8d 8g	8gg)	.
8r	16r	.
.	16dd	p
*clefF4	*	*
=35	=35	=35
8B (8dL	(8ggL	.
8A 8cn 8d#J)	8ff#tJ)	.
.	32eeq/LLL	.
.	32ff#q/JJJ	.
4G 4B 4e	(16eeLL	.
.	16bbJJ)	.
.	(32aaLLL	>
.	32gg	)
.	32ff#	)
.	32eeJJJ)	]
=36	=36	=36
8A 8dn 8f#	(16ddLL	p
.	16ff#J)	.
8r	([8aaJ	.
8A 8d 8f#	16aaLL]	.
.	16gg#	.
8r	16ggn	.
.	16ff#JJ)	.
=37	=37	=37
8A 8d 8e	(24bbLL	.
.	24gg	.
.	24eeJJ)	.
8r	4.eeT	f
8A 8c# 8g	.	.
8r	.	.
.	32ddq/LLL	.
.	32eeq/JJJ	.
=38	=38	=38
4d 4f#	(16ddLL	.
.	16cc#	p
.	16dd	.
.	16eeJJ	.
4r	16ddLL	.
.	16ccn	.
.	16b	.
.	16a#JJ)	.
=39	=39	=39
*^	*	*
2d	(8GL	(8b/L	p
.	.	32dd/qq	.
.	16.AL	16.cc/L	.
.	32GJJk	32b/JJk	.
.	8F#L	8anL	.
.	8GJ)	8bJ)	.
=40	=40	=40	=40
2d	(8AL	(8ccL	.
.	.	32ddq/LLL	.
.	.	32ccq/	.
.	.	32bq/	.
.	.	32ccq/JJJ	.
.	16cL	16eeL	.
.	16BJJ	16ddJJ	.
.	8AL	8ccL	.
.	8GJ)	8bJ)	.
*v	*v	*	*
=41	=41	=41
8E' 8e'L	8g' 8cc'L	f
8D' 8d'J	8g' 8b'J	.
8C' 8c'	8g'/ 8ee'/	.
16r	16r	.
16B	16g/ 16dd/	p
=42	=42	=42
*^	*	*
4ryy	(8F#L	(16ccLL	.
.	.	16a	.
.	8GJ)	16b	.
.	.	16gJJ)	.
(8GL	4D	(8bL	.
8F#J)	.	8aJ)	.
=43	=43	=43	=43
2d	(8GL	(8b/L	.
.	.	32ccq/LLL	.
.	.	32bq/	.
.	.	32aq/	.
.	.	32bq/JJJ	.
.	32B/qq	32dd/qq	.
.	16.AL	16.cc/L	.
.	32GJJk	32b/JJk	.
.	8F#L	8aL	.
.	8G#J)	8bJ)	.
=44	=44	=44	=44
2d	(8AL	(16ccLL	.
.	.	16cc#	.
.	8F#J	16ee	.
.	.	16ddJJ	.
.	4Gn)	16.ccnLL	.
.	.	64ddLL	.
.	.	64ccJJJ	.
.	.	8bJ)	.
*v	*v	*	*
=45	=45	=45
*	*^	*
8E' 8e'L	8g' 8cc'L	4ryy	f
8D' 8d'J	8g' 8b'J	.	.
8C' 8c'	(16eeLL	8g	.
.	16ff#	.	p
*clefG2	*	*	*
16r	16gg	8r	.
16e 16g	16ccJJ)	.	.
*	*v	*v	*
=46	=46	=46
*^	*	*
(8gL	4d	(8bL	.
8f#J)	.	8aJT)	.
*clefF4	*	*	*
.	.	32gq/LLL	.
.	.	32aq/JJJ	.
(16GLL	4G	4g	.
16B	.	.	.
16d	.	.	.
16BJJ)	.	.	.
=47	=47	=47	=47
(16CLL	4C	(16bLK	.
16E	.	8.aJ)	.
16A	.	.	.
16EJJ)	.	.	.
(16DLL	4D	(16gLL	.
16c	.	(16f#)	.
16A	.	16f#	.
16cJJ)	.	16dJJ)	.
=48	=48	=48	=48
(16GLL	4G	4dd	.
16B	.	.	.
16d	.	.	.
16BJJ)	.	.	.
(16ELL	4E	8.gL	.
16G	.	.	.
16B	.	.	.
16GJJ)	.	(16gTJk	.
.	.	32f#q/LLL	.
.	.	32gq/JJJ	.
=49	=49	=49	=49
(16CLL	4C	16bLL	.
16E	.	16aJ)	.
16A	.	8aJ	.
16EJJ)	.	.	.
(16DLL	4D	(16gLL	.
16c	.	16f#)	.
16A	.	(16f#	.
16cJJ)	.	16dJJ)	.
*v	*v	*	*
=50	=50	=50
4G 4B	4g	.
8E- 8e-L	8g 8cc# 8ggL	f
8E- 8e-J	8g 8cc# 8ggJ	.
=51	=51	=51
4E- 4e-	4g 4cc# 4gg	.
*clefG2	*	*
8d 8aL	8ff# 8dddL	p
8d 8aJ	8ff# 8dddJ	.
=52	=52	=52
4d 4a	4ff# 4ddd	.
4r	8r	.
.	(16.btLL	f
.	32ccnJJk	.
*clefF4	*	*
=53	=53	=53
(16GLL	8ddL)	.
16B	.	.
16d	[8ddJ	.
16BJJ)	.	.
(16GLL	16ddLL]	.
16B	16dd	.
16d	16.ddT	.
16BJJ)	.	.
.	32eeJJk	.
=54	=54	=54
(16GLL	(16ddLL	.
16A	16ccJ)	.
16e	8.ccJ	.
16AJJ)	.	.
(16GLL	.	.
16A	16cc'LL	.
16e	16b'	.
16AJJ)	16a'JJ	.
=55	=55	=55
(16F#LL	(16aLL	.
16A	16ddJ)	.
16d	([8ddJ	.
16AJJ)	.	.
(16ELL	16ddLL]	.
16A	32eeL	.
.	32ddJJJ)	.
16c	(32ddLLL	.
.	32cc	.
16AJJ)	32b	.
.	32ccJJJ)	.
=56	=56	=56
(16D#LL	(16ccLL	.
16F#	16bJ)	.
16A	8.bJ	.
16D#JJ)	.	.
(16ELL	.	.
.	(32bq/LLL	.
.	32ccq/JJJ	.
16B	16dd'LL)	.
16Dn	16cc'	.
16GJJ)	16b'JJ	.
=57	=57	=57
(16C#LL	(16bLL	.
16E	16a)	.
16G	16a'	.
16EJJ)	16a'JJ	.
(16C#LL	8aL	.
16E	.	.
16G	8aJ	.
16EJJ)	.	.
=58	=58	=58
.	(32cc#q/LLL	.
.	32dd/q	.
.	32eeq/JJJ	.
(16CnLL	[4dd)	.
16F#	.	.
16A	.	.
16CJJ)	.	.
(16BBLL	(16ddLL]	.
16G	32eeL	.
.	32ddJ	.
16E	16ccn)	.
16DJJ)	16b'JJ	.
=59	=59	=59
4.C 4.E	(16bLL	.
.	16a	.
.	16g#	.
.	16aJJ	.
.	16bLL	.
.	16cc)	.
8C# 8A	(16e	.
.	16aJJ)	.
=60	=60	=60
4D 4A	(16gLL	.
.	16f#	.
.	16e	.
.	16dJJ	.
4r	16eLL	.
.	16f#	.
.	16g	.
.	16aJJ)	.
*clefG2	*	*
=61	=61	=61
16gLL	(8bL	p
(16d	.	.
.	32dd/qq	.
16g	16.ccL	.
16dJJ	.	.
.	32bJJk)	.
16f#LL	(8a\L	.
16d	.	.
16g	8bJ\)	.
16dJJ	.	.
=62	=62	=62
16aLL	(8ccL	.
16d	.	.
16f#	8dd	.
16dJJ	.	.
16gLL	8cc	.
16d	.	.
16g	8bJ)	.
16dJJ)	.	.
*clefF4	*	*
=63	=63	=63
8G 8BL	[2dddt	mf
32d/qq	.	.
16.A 16.cL	.	.
32G 32BJJk	.	.
8F# (8AL	.	.
8G 8BJ)	.	.
=64	=64	=64
8A (8cL	2ddd]	.
8B 8d	.	.
8A 8c	.	.
8G 8BJ)	.	.
.	32ccc#q/LLL	.
.	32dddq/JJJ	.
=65	=65	=65
8B (8dL	(8g 8ggL	f
8A 8c 8d#J	8f# 8ff#J	.
8G 8B)	8e\ 8ee\)	.
8r	16r	.
.	16b	p
=66	=66	=66
8G (8BL	(8e 8eeL	.
8Fn 8G 8BJ	8d 8ddJ	.
8E 8G)	8c) 8cc	.
8r	16r	.
.	16g	f
=67	=67	=67
8E (8GL	(8c 8ccL	.
8D 8Fn 8G#J	8B) 8bJ	.
4C 4E 4A)	(16aLL	.
.	16eeJJ)	.
.	(32ddLLL	.
.	32cc	.
.	32b	.
.	32aJJJ)	.
=68	=68	=68
*^	*	*
(8BL	4D	(8gL	.
8F#XJ)	.	8aJ)	.
(8F#L	4GG	(8a#L	.
8GnJ)	.	8bJ)	.
*v	*v	*	*
=69	=69	=69
8B (8dL	(8ggL	p
8A 8cn 8d#J	8ff#tJ	.
.	32eeq/LLL	.
.	32ff#q/JJJ	.
8G 8B 8e)	8ee)	.
8r	16r	.
.	16bb	f
*clefG2	*	*
=70	=70	=70
(8g 8bL	(8eeeL	.
8fn 8g 8bJ	8dddTJ	.
.	32cccq/LLL	.
.	32dddq/JJJ	.
8e) 8g 8cc	8ccc)	.
8r	16r	.
.	16gg	p
=71	=71	=71
(8e 8gL	(8cccL	.
8d 8fn 8g#J	8bbtJ)	.
.	32aaq/LLL	.
.	32bbq/JJJ	.
4c 4e 4a)	(16aaLL	.
.	16eeeJJ)	.
.	(32dddLLL	.
.	32ccc	.
.	32bb	.
.	32aaJJJ)	.
=72	=72	=72
8d 8gn 8b	16gg'LL	.
.	16aa'	.
8r	16bb-'	.
.	16bbn'JJ	.
8d 8g 8b	16ccc'LL	.
.	16ccc#'	.
8r	16ddd'	.
.	16ddd#'JJ	.
=73	=73	=73
!	!LO:TX:b:i:t=cresc.	!
8d 8g 8cc	(32ddd#LLL	<
.	32eee	.
.	32ddd#	.
.	32eeeJJJ)	.
8r	(32dddnLLL	.
.	32cccn	.
.	32bb	.
.	32aaJJJ)	.
8d 8f#X 8cc	(4aaT	f
8r	.	.
.	32ggq/LLL	.
.	32aaq/JJJ	.
=74	=74	=74
8g 8b	32gg)	.
.	(32ggLLL	.
.	32ff#	.
.	32ggJJJ	.
8r	32aaLLL	.
.	32gg	.
.	32ff#	.
.	32eeJJJ	.
4r	32dd)	.
.	(32eeLLL	p
.	32dd#	.
.	32eeJJJ	.
.	32ff#LLL	.
.	32ee	.
.	32ddn)	.
.	32ccJJJ	.
*clefF4	*	*
=75	=75	=75
*^	*	*
4d	(8GL	16b/LL	p
.	.	(64cc/LL	.
.	.	64b/	.
.	.	64cc/	.
.	.	64b/JJJJ	.
.	.	32dd/qq	.
.	16.AL	16.cc/LL	.
.	32GJJk)	[32b/JJk	.
4d	(8F#L	16bLK]	.
.	.	8a	.
.	8GJ)	.	.
.	.	[16bJk)	.
=76	=76	=76	=76
4d	(8AL	(16bLK]	.
.	.	8cc	.
.	8F#J)	.	.
.	.	32eeLL	.
.	.	32ddJJJ)	.
4d	4G	8ccL	.
.	.	8bJ	.
*v	*v	*	*
=77	=77	=77
8E' 8e'L	8g' 8cc'L	f
8D' 8d'J	8g' 8b'J	.
8C' 8c'	8g'/ 8ee'/	.
16r	16r	.
16B	16dd	p
=78	=78	=78
*^	*	*
4d	(8F#L	(32ddLLL	.
.	.	32cc	.
.	.	32b	.
.	.	32aJJJ)	.
.	8GJ)	(32ccLLL	.
.	.	32b	.
.	.	32a	.
.	.	32gJJJ)	.
4d	4D	(8g 8bL	.
.	.	8f#) 8aJ	.
=79	=79	=79	=79
4d	(8GL	(16a#/LL	.
.	.	16b/	.
.	.	(32dd/qq	.
.	16AL	16cc/)	.
.	16GJJ)	16bJJ)/	.
4ryy	8F# 8dL	(16g#LL	.
.	.	16anJJ)	.
.	8G 8dJ	16r	.
.	.	(32ccLLL	.
.	.	32bJJJ)	.
*v	*v	*	*
=80	=80	=80
8A 8dL	16r	.
.	(32ddLLL	.
.	32ccJJJ)	.
8F# 8dJ	16r	.
.	32eeLLL	.
.	32ddJJJ	.
4G 4d	(16.ccLL	.
.	64ddLL	.
.	64ccJJJ	.
.	8bJ)	.
=81	=81	=81
8E' 8e'L	8g' 8cc'L	f
8D' 8d'J	8g' 8b'J	.
8C 8c	16.g (16.eeOLL	.
.	32ff#JJk	.
16r	16ggLL)	.
16e 16g	16ccJJ	p
=82	=82	=82
*^	*	*
(8gL	4d	(8bL	.
8f#J)	.	8aJT)	.
.	.	32gq/LLL	.
.	.	32aq/JJJ	.
(16GLL	4G	4g	.
16B	.	.	.
16d	.	.	.
16BJJ)	.	.	.
=83	=83	=83	=83
(16CLL	4C	4a	.
16E	.	.	.
16A	.	.	.
16EJJ)	.	.	.
(16DLL	4D	(16gLL	.
16c	.	16f#)	.
16A	.	(16f#	.
16cJJ)	.	16dJJ)	.
=84	=84	=84	=84
(16GLL	4G	4dd	.
16B	.	.	.
16d	.	.	.
16BJJ)	.	.	.
(16ELL	4E	8.gL	.
16G	.	.	.
16B	.	.	.
16GJJ)	.	(16gTJk	.
=85	=85	=85	=85
(16CLL	4C	16bLL	.
16E	.	16aJ)	.
16A	.	8aJ	.
16EJJ)	.	.	.
(16DLL	4D	(16gLL	.
16c	.	16f#)	.
16A	.	(16f#	.
16cJJ)	.	16dJJ)	.
*v	*v	*	*
=86	=86	=86
16GG/LL	4g	.
!LO:S:a	!	!
(16G/	.	.
16B/	.	.
16d/JJ)	.	.
16EE/LL	4g 4gg	.
!LO:S:a	!	!
(16E/	.	.
16G/	.	.
16B/JJ)	.	.
=87	=87	=87
.	(16b/qq 16bb/qq	.
!	!LO:TX:b:i:t=cresc.	!
16CCLL	4a 4aa)	<
!LO:S:a	!	!
(16C	.	.
16E	.	.
16AJJ)	.	.
16DD/LL	(16g 16ggLL	.
!LO:S:a	!	!
(16D/	16f#) 16ff#	.
16A/	(16f# 16ff#	.
16c/JJ)	16d) 16ddJJ	.
=88	=88	=88
16BBBLL	4dd 4ddd	.
!LO:S:a	!	!
(16/BB	.	.
16D/	.	.
16G/JJ)	.	.
16EE/LL	8g 8ggL	f
!LO:S:a	!	!
(16E/	.	.
16G/	8g 8ggJ	.
16B/JJ)	.	.
=89	=89	=89
16CCLL	16b (16bbLL	.
!LO:S:a	!	!
(16C	16a 16aa)	.
16E	16a' 16aa'	.
16AJJ)	16a' 16aa'JJ	.
16DD/LL	(16g 16ggLL	.
!LO:S:a	!	!
(16D/	16f#) 16ff#	.
16A/	(16f# 16ff#	.
16c/JJ)	16d) 16ddJJ	.
=90	=90	=90
16GLL	4g 4gg	.
16B 16d	.	.
16B 16d	.	.
16B 16dJJ	.	.
16DLL	(16bbLL	p
16c 16d	16aa)	.
16c 16d	(16aa	.
16c 16dJJ	16ff#JJ)	.
=91	=91	=91
16GLL	(16ggLL	.
16B	16bbJ	.
16B 16d	8dddJ)	.
16B 16dJJ	.	.
16DLL	(16bbLL	.
16c 16d	16aa)	.
16c 16d	(16aa	.
16c 16dJJ	16ff#JJ)	.
=92	=92	=92
8G 8B 8dL	16g (16ggLL	p
.	16b 16bb)	.
8D 8F# 8cJ	16dd' 16ddd'	.
.	16dd' 16ddd'JJ	.
8G 8BL	16g 16ggLL	.
.	16b 16bb	.
8D 8F# 8cJ	16dd' 16ddd'	.
.	16dd' 16ddd'JJ	.
=93	=93	=93
[4G [4B	4dd (4ddd	.
8G] 8B]	8g 8gg)	.
8r	8r	.
==	==	==
*-	*-	*-
!!!SMS: Alte Mozart-Ausgabe, Band 20, Breitkopf &amp; H&auml;rtel 1877-1883.
!!!ONB: Stich und Druck von Breitkopf &amp; H&auml;rtel in Leipzig
!!!ONB: Ausgegeben 1878
!!!ENC: Craig Stuart Sapp
!!!END: 2009/10/15/
!!!EEV: 2016/12/29/
!!!title: @{OTL}, K 311 (284c), @{OMV}
!!!hum2abc: --no-tempo -s 0.65 --spacing 2.0 -p "%gracespace  0 6.0 12.0"
